!!!OTL: DA DROBEN AUF JENEM BERGE
!!!ARE: Europa, Mitteleuropa, Deutschland, Westfalen
!!!SCT: E0419D
!!!YEM: Copyright 1995, estate of Helmut Schaffrath.
**kern
*ICvox
*Ivox
*M6/8
*k[f#c#g#d#]
*E:
{8B
=1
8.e
16d#
8e
8.e
16d#
8e
=2
4d#
8c#
4B}
{8B
=3
4e
8e
4f#
8f#
=4
2g#
8r}
{16g#
16a
=5
8.b
16cc#
8b
8b
8cc#
8b
=6
4b
8a
4a}
{8a
=7
8.g#
16a
8g#
8f#
8e
8f#
=8
2e
8r}
==
!!!AGN: Liebes - Lied, Abschied
!!!ONB: ESAC (Essen Associative Code) Database: ERK1
!!!AMT: compound duple
!!!AIN: vox
!!!EED: Helmut Schaffrath
!!!EEV: 1.0
*-
